assets/svg/1F417.svg

<svg xmlns="http://www.w3.org/2000/svg" viewBox="0 0 64 64" enable-background="new 0 0 64 64"><g transform="translate(2)"><g><path d="m17.33 16.03c1.196 5-10.914 15.454-14.437 16.294-3.524.84-1.888-9.873-1.723-15.875.168-6.178.202-17.603 3.034-15.348 3.071 2.444 11.934 9.923 13.13 14.929" fill="#d08565"/><path d="m16.996 19.934c1.037 4.348-9.479 13.42-12.538 14.15-3.059.73-1.639-8.573-1.495-13.784.146-5.366.016-10.794 3.074-11.524 3.054-.73 9.923 6.812 10.959 11.158" fill="#eac8b8"/></g><g><path d="m43.591 16.03c-1.198 5 10.913 15.454 14.435 16.295 3.524.84 1.889-9.873 1.724-15.875-.168-6.179-.201-17.603-3.03-15.349-3.072 2.445-11.937 9.923-13.13 14.929" fill="#d08565"/><path d="m43.925 19.931c-1.037 4.348 9.479 13.42 12.537 14.15 3.06.73 1.639-8.573 1.495-13.785-.146-5.366-.015-10.793-3.074-11.523-3.056-.731-9.923 6.811-10.958 11.157" fill="#eac8b8"/></g><path d="m0 42.07c0 12.146 13.556 21.98 30.3 21.98 16.737 0 30.3-9.834 30.3-21.98 0-12.133-13.558-42.07-30.3-42.07-16.739 0-30.3 29.935-30.3 42.07" fill="#dfad92"/><g><g fill="#fff"><path d="m25.353 27.897c0 5.761-3.116 10.431-6.964 10.431-3.848 0-6.968-4.67-6.968-10.431 0-5.764 3.12-10.432 6.968-10.432 3.848 0 6.964 4.668 6.964 10.432"/><path d="m48.925 27.897c0 5.761-3.116 10.431-6.964 10.431-3.849 0-6.969-4.67-6.969-10.431 0-5.764 3.12-10.432 6.969-10.432 3.848 0 6.964 4.668 6.964 10.432"/></g><g fill="#25333a"><ellipse cx="18.387" cy="27.897" rx="4.508" ry="5.463"/><path d="m46.47 27.897c0 3.02-2.02 5.463-4.504 5.463-2.492 0-4.509-2.445-4.509-5.463 0-3.02 2.02-5.466 4.509-5.466 2.489 0 4.504 2.447 4.504 5.466"/></g><g fill="#633c17"><path d="m25.562 20.552c-.438-.121-.876-.244-1.312-.366-.068-.019-.108-.057-.167-.083-.062-.03-.125-.053-.185-.098-.099-.076-.173-.165-.235-.262-.015-.021-.032-.03-.046-.051-2.305-3.971-6.257-5.83-10.776-4.896-2.424.498-2.521 1.509-4.788.876-.929-.258-.974-1.433-.237-1.92 6.774-4.487 15.463-2.066 18.941 5.275.38.801-.268 1.783-1.195 1.525"/><path d="m35.03 20.552c.438-.121.874-.244 1.312-.366.065-.019.107-.057.161-.083.067-.03.131-.053.192-.098.095-.076.171-.165.232-.262.013-.021.032-.03.045-.051 2.305-3.971 6.259-5.83 10.778-4.896 2.424.498 2.519 1.509 4.79.876.928-.258.974-1.433.235-1.92-6.771-4.487-15.463-2.066-18.941 5.275-.377.801.267 1.783 1.196 1.525"/></g></g><path d="m15.872 43.38c0-6.864 5.84-6.737 13.803-6.737 7.972 0 15.05-.127 15.05 6.737 0 6.873-6.46 12.44-14.425 12.44-7.964 0-14.426-5.567-14.426-12.44" fill="#d08565"/><g fill="#784e3d"><path d="m28.18 46.27c0 2.737-1.829 4.951-4.081 4.951-2.259 0-4.087-2.214-4.087-4.951 0-2.732 1.829-4.948 4.087-4.948 2.252-.0001 4.081 2.215 4.081 4.948"/><path d="m40.32 46.23c0 2.736-1.829 4.951-4.081 4.951-2.261 0-4.088-2.215-4.088-4.951 0-2.732 1.827-4.949 4.088-4.949 2.252 0 4.081 2.217 4.081 4.949"/></g><g fill="#e7e6e6"><path d="m22.698 55.09c.134-.294-.866-2.02-1.014-2.127-3.749-2.748-6.499-13.541-6.812-15.09-.726-3.581-3.516-6.788-4.938-5.67-1.372 1.069-.79 8.719-.73 10.262.146 3.77 1.495 8.03 3.52 11.225 2.142 3.369 7.893 6.05 9.974 1.399"/><path d="m48.55 53.695c2.025-3.191 3.374-7.455 3.521-11.225.059-1.543.642-9.193-.73-10.262-1.423-1.118-4.215 2.089-4.938 5.67-.313 1.548-3.062 12.341-6.812 15.09-.148.107-1.147 1.833-1.014 2.127 2.079 4.654 7.831 1.971 9.973-1.399"/></g></g></svg>

<?xml version="1.0" encoding="UTF-8" standalone="no"?>
<!-- Generator: Adobe Illustrator 16.0.0, SVG Export Plug-In . SVG Version: 6.00 Build 0)  -->

<svg
   xmlns:dc="http://purl.org/dc/elements/1.1/"
   xmlns:cc="http://creativecommons.org/ns#"
   xmlns:rdf="http://www.w3.org/1999/02/22-rdf-syntax-ns#"
   xmlns:svg="http://www.w3.org/2000/svg"
   xmlns="http://www.w3.org/2000/svg"
   xmlns:sodipodi="http://sodipodi.sourceforge.net/DTD/sodipodi-0.dtd"
   xmlns:inkscape="http://www.inkscape.org/namespaces/inkscape"
   version="1.1"
   id="Layer_1"
   x="0px"
   y="0px"
   width="64px"
   height="64px"
   viewBox="0 0 64 64"
   enable-background="new 0 0 64 64"
   xml:space="preserve"
   inkscape:version="0.48.5 r10040"
   sodipodi:docname="1F417.svg"
   inkscape:export-filename="D:\TESTINGEMOJI\SVGTEST\1F417.png"
   inkscape:export-xdpi="90"
   inkscape:export-ydpi="90"><metadata
   id="metadata4097"><rdf:RDF><cc:Work
       rdf:about=""><dc:format>image/svg+xml</dc:format><dc:type
         rdf:resource="http://purl.org/dc/dcmitype/StillImage" /><dc:title></dc:title></cc:Work></rdf:RDF></metadata><defs
   id="defs4095" /><sodipodi:namedview
   pagecolor="#ffffff"
   bordercolor="#666666"
   borderopacity="1"
   objecttolerance="10"
   gridtolerance="10"
   guidetolerance="10"
   inkscape:pageopacity="0"
   inkscape:pageshadow="2"
   inkscape:window-width="640"
   inkscape:window-height="480"
   id="namedview4093"
   showgrid="false"
   inkscape:zoom="3.6875"
   inkscape:cx="32"
   inkscape:cy="32"
   inkscape:window-x="256"
   inkscape:window-y="192"
   inkscape:window-maximized="0"
   inkscape:current-layer="Layer_1" />
<g
   id="g4053"
   transform="translate(2,0)">
	<g
   id="g4055">
		<path
   d="M 17.33,16.028 C 18.526,21.032 6.416,31.482 2.893,32.322 -0.631,33.162 1.005,22.449 1.17,16.447 1.338,10.269 1.372,-1.156 4.204,1.099 7.275,3.543 16.138,11.022 17.33,16.028 z"
   id="path4057"
   inkscape:connector-curvature="0"
   style="fill:#d08565" />
		<path
   d="M 16.996,19.934 C 18.033,24.282 7.517,33.354 4.458,34.084 1.399,34.814 2.819,25.511 2.963,20.3 3.109,14.934 2.979,9.506 6.037,8.776 9.091,8.046 15.96,15.588 16.996,19.934 z"
   id="path4059"
   inkscape:connector-curvature="0"
   style="fill:#eac8b8" />
	</g>
	<g
   id="g4061">
		<path
   d="M 43.591,16.026 C 42.393,21.03 54.504,31.48 58.026,32.321 61.55,33.161 59.915,22.448 59.75,16.446 59.582,10.267 59.549,-1.157 56.717,1.097 53.645,3.542 44.78,11.02 43.591,16.026 z"
   id="path4063"
   inkscape:connector-curvature="0"
   style="fill:#d08565" />
		<path
   d="m 43.925,19.931 c -1.037,4.348 9.479,13.42 12.537,14.151 3.06,0.73 1.639,-8.573 1.495,-13.785 C 57.811,14.931 57.942,9.504 54.883,8.774 51.827,8.043 44.96,15.585 43.925,19.931 z"
   id="path4065"
   inkscape:connector-curvature="0"
   style="fill:#eac8b8" />
	</g>
	<path
   d="m 0,42.068 c 0,12.146 13.556,21.98 30.295,21.98 16.737,0 30.295,-9.834 30.295,-21.98 C 60.59,29.935 47.032,0 30.295,0 13.556,0 0,29.935 0,42.068 z"
   id="path4067"
   inkscape:connector-curvature="0"
   style="fill:#dfad92" />
	<g
   id="g4069">
		<path
   d="m 25.353,27.897 c 0,5.761 -3.116,10.431 -6.964,10.431 -3.848,0 -6.968,-4.67 -6.968,-10.431 0,-5.764 3.12,-10.432 6.968,-10.432 3.848,0 6.964,4.668 6.964,10.432 z"
   id="path4071"
   inkscape:connector-curvature="0"
   style="fill:#ffffff" />
		<path
   d="m 48.925,27.897 c 0,5.761 -3.116,10.431 -6.964,10.431 -3.849,0 -6.969,-4.67 -6.969,-10.431 0,-5.764 3.12,-10.432 6.969,-10.432 3.848,0 6.964,4.668 6.964,10.432 z"
   id="path4073"
   inkscape:connector-curvature="0"
   style="fill:#ffffff" />
		<ellipse
   cx="18.386999"
   cy="27.896999"
   rx="4.5079999"
   ry="5.4629998"
   id="ellipse4075"
   sodipodi:cx="18.386999"
   sodipodi:cy="27.896999"
   sodipodi:rx="4.5079999"
   sodipodi:ry="5.4629998"
   style="fill:#25333a"
   d="m 22.894999,27.896999 c 0,3.017132 -2.0183,5.463 -4.508,5.463 -2.489699,0 -4.508,-2.445868 -4.508,-5.463 0,-3.017131 2.018301,-5.462999 4.508,-5.462999 2.4897,0 4.508,2.445868 4.508,5.462999 z" />
		<path
   d="m 46.465,27.897 c 0,3.018 -2.015,5.463 -4.504,5.463 -2.492,0 -4.509,-2.445 -4.509,-5.463 0,-3.019 2.017,-5.466 4.509,-5.466 2.489,0 4.504,2.447 4.504,5.466 z"
   id="path4077"
   inkscape:connector-curvature="0"
   style="fill:#25333a" />
		<path
   d="M 25.562,20.552 C 25.124,20.431 24.686,20.308 24.25,20.186 24.182,20.167 24.142,20.129 24.083,20.103 24.021,20.073 23.958,20.05 23.898,20.005 23.799,19.929 23.725,19.84 23.663,19.743 23.648,19.722 23.631,19.713 23.617,19.692 21.312,15.721 17.36,13.862 12.841,14.796 10.417,15.294 10.32,16.305 8.053,15.672 7.124,15.414 7.079,14.239 7.816,13.752 c 6.774,-4.487 15.463,-2.066 18.941,5.275 0.38,0.801 -0.268,1.783 -1.195,1.525 z"
   id="path4079"
   inkscape:connector-curvature="0"
   style="fill:#633c17" />
		<path
   d="m 35.03,20.552 c 0.438,-0.121 0.874,-0.244 1.312,-0.366 0.065,-0.019 0.107,-0.057 0.161,-0.083 0.067,-0.03 0.131,-0.053 0.192,-0.098 0.095,-0.076 0.171,-0.165 0.232,-0.262 0.013,-0.021 0.032,-0.03 0.045,-0.051 2.305,-3.971 6.259,-5.83 10.778,-4.896 2.424,0.498 2.519,1.509 4.79,0.876 0.928,-0.258 0.974,-1.433 0.235,-1.92 -6.771,-4.487 -15.463,-2.066 -18.941,5.275 -0.377,0.801 0.267,1.783 1.196,1.525 z"
   id="path4081"
   inkscape:connector-curvature="0"
   style="fill:#633c17" />
	</g>
	<path
   d="m 15.872,43.385 c 0,-6.864 5.84,-6.737 13.803,-6.737 7.972,0 15.048,-0.127 15.048,6.737 0,6.873 -6.46,12.44 -14.425,12.44 -7.964,0 -14.426,-5.567 -14.426,-12.44 z"
   id="path4083"
   inkscape:connector-curvature="0"
   style="fill:#d08565" />
	<path
   d="m 28.183,46.266 c 0,2.737 -1.829,4.951 -4.081,4.951 -2.259,0 -4.087,-2.214 -4.087,-4.951 0,-2.732 1.829,-4.948 4.087,-4.948 2.252,-10e-4 4.081,2.215 4.081,4.948 z"
   id="path4085"
   inkscape:connector-curvature="0"
   style="fill:#784e3d" />
	<path
   d="m 40.322,46.234 c 0,2.736 -1.829,4.951 -4.081,4.951 -2.261,0 -4.088,-2.215 -4.088,-4.951 0,-2.732 1.827,-4.949 4.088,-4.949 2.252,0 4.081,2.217 4.081,4.949 z"
   id="path4087"
   inkscape:connector-curvature="0"
   style="fill:#784e3d" />
	<path
   d="m 22.698,55.095 c 0.134,-0.294 -0.866,-2.02 -1.014,-2.127 -3.749,-2.748 -6.499,-13.541 -6.812,-15.089 -0.726,-3.581 -3.516,-6.788 -4.938,-5.67 -1.372,1.069 -0.79,8.719 -0.73,10.262 0.146,3.77 1.495,8.033 3.52,11.225 2.142,3.369 7.893,6.052 9.974,1.399 z"
   id="path4089"
   inkscape:connector-curvature="0"
   style="fill:#e7e6e6" />
	<path
   d="m 48.55,53.695 c 2.025,-3.191 3.374,-7.455 3.521,-11.225 0.059,-1.543 0.642,-9.193 -0.73,-10.262 -1.423,-1.118 -4.215,2.089 -4.938,5.67 -0.313,1.548 -3.062,12.341 -6.812,15.089 -0.148,0.107 -1.147,1.833 -1.014,2.127 2.079,4.654 7.831,1.971 9.973,-1.399 z"
   id="path4091"
   inkscape:connector-curvature="0"
   style="fill:#e7e6e6" />
</g>
</svg>
